mars.3dl
#64pt 3DLUT created by 3D LUT Creator Pro (c) Oleg Sharonov
#Copyright Jens Tabel
#INPUTGAMMA sRGB
#IMAGEPROFILE sRGB
#OUTPUTGAMMA sRGB
0 147 293 439 585 731 877 1023
0 0 0
30 9 584
111 33 1253
252 80 1989
462 185 2839
706 318 3587
1125 775 4081
1708 1511 4082
80 922 30
92 927 706
136 936 1574
188 937 2440
284 914 3195
415 842 3925
1228 1263 4081
1814 1766 4082
293 1986 129
240 1992 707
324 1985 1577
391 1973 2415
438 1952 3145
488 1915 3834
1430 2000 4079
2043 2234 4082
494 2743 257
316 2751 640
516 2741 1447
539 2732 2280
704 2709 2997
652 2686 3679
1601 2653 4073
2322 2722 4079
669 3265 366
407 3274 542
535 3268 1315
687 3257 2103
749 3244 2820
956 3216 3492
1519 3171 4059
2592 3140 4074
821 3658 462
545 3667 491
574 3664 1183
782 3655 1921
832 3645 2640
1008 3625 3300
1090 3596 3977
2810 3493 4068
957 3977 548
758 3983 569
629 3986 1054
764 3979 1771
992 3967 2449
965 3956 3130
1436 3922 3774
3021 3791 4058
2981 4081 2935
2984 4081 2958
2994 4079 3016
3020 4076 3120
3076 4067 3275
3119 4062 3481
3146 4060 3757
3449 4014 4023
1068 0 3
1079 0 636
1129 0 1410
1203 67 2226
1291 167 2968
1408 301 3652
1598 840 4082
1932 1569 4083
1237 958 0
1369 915 688
1548 833 1596
1480 939 2228
1527 984 2926
1612 1031 3594
1773 1288 4042
2015 1811 4083
1257 1991 58
1332 1976 796
1477 1956 1464
1592 1896 2515
1528 1874 3245
1537 1809 3940
1939 2000 4024
2198 2260 4083
1261 2740 173
1435 2719 838
1505 2714 1405
1574 2700 2223
1639 2669 3015
1543 2647 3718
2066 2641 4019
2433 2735 4081
1267 3260 301
1446 3246 846
1586 3236 1367
1574 3236 1977
1663 3216 2778
1738 3186 3498
2161 3141 3996
2669 3147 4076
1293 3654 410
1455 3644 855
1542 3639 1299
1450 3644 1816
1584 3628 2579
1764 3602 3271
2078 3554 3940
2870 3496 4070
1334 3974 507
1477 3967 869
1536 3963 1252
1356 3971 1675
1578 3956 2382
1647 3941 3086
2004 3902 3759
3063 3793 4060
3025 4082 2935
3027 4082 2958
3034 4081 3016
3055 4078 3118
3105 4070 3273
3159 4063 3483
3181 4062 3758
3472 4017 4025
2391 0 6
2396 0 734
2406 0 1574
2419 0 2398
2455 18 3063
2443 245 3711
2367 968 4085
2379 1705 4084
2428 977 0
2533 880 613
2565 844 1535
2523 894 2375
2535 909 3032
2503 999 3655
2443 1367 4046
2427 1916 4085
2401 1963 0
2455 1942 624
2578 1879 1471
2598 1861 2307
2682 1800 3012
2661 1859 3519
2620 2011 3949
2535 2322 4085
2281 2719 89
2284 2717 732
2251 2719 1504
2739 2579 2324
2738 2544 3120
2706 2527 3726
2732 2623 3899
2685 2767 4084
2176 3244 204
2207 3238 740
2316 3219 1478
2544 3174 2241
2495 3184 2691
2627 3123 3537
2797 3109 3891
2853 3163 4080
2090 3640 320
2142 3634 763
2311 3614 1452
2521 3582 2168
2365 3606 2477
2480 3574 3246
2859 3501 3847
3016 3504 4073
2023 3963 424
2083 3958 790
2259 3941 1413
2695 3884 2356
2709 3880 2708
2835 3856 3204
2924 3832 3733
3168 3799 4065
3138 4084 2938
3139 4084 2960
3143 4084 3017
3152 4082 3117
3184 4077 3270
3259 4065 3488
3273 4065 3762
3531 4023 4031
3304 0 18
3304 0 739
3302 0 1572
3298 0 2382
3292 0 3074
3282 12 3728
3103 1071 4088
2889 1890 4086
3293 955 0
3379 784 497
3387 751 1475
3363 782 2351
3342 803 3058
3307 865 3691
3127 1427 4053
2911 2062 4087
3233 1919 0
3276 1883 552
3370 1788 1326
3422 1717 2197
3342 1788 2934
3386 1705 3607
3189 2029 3965
2962 2410 4087
3131 2666 0
3157 2655 520
3221 2624 1277
3320 2564 2109
3353 2528 2851
3549 2352 3587
3279 2609 3835
3036 2813 4087
2976 3208 104
2982 3205 658
2998 3198 1357
3013 3187 2091
3334 3072 2834
3467 2992 3504
3320 3084 3779
3126 3189 4086
2819 3617 230
2821 3616 677
2839 3610 1325
2884 3596 2029
3122 3539 2705
3228 3511 3184
3395 3452 3785
3235 3517 4079
2722 3943 336
2737 3940 703
2786 3931 1298
2935 3902 2123
3255 3822 3030
3359 3798 3339
3463 3774 3714
3338 3808 4072
3323 4087 2947
3323 4087 2968
3325 4087 3023
3328 4086 3119
3336 4085 3266
3383 4076 3486
3423 4070 3767
3629 4034 4040
3937 0 30
3936 0 716
3932 0 1518
3925 0 2315
3912 0 3009
3893 0 3660
3680 1155 4095
3362 2066 4091
3917 913 0
4000 635 303
4001 608 1363
3974 671 2263
3949 702 2989
3921 717 3648
3686 1469 4064
3369 2206 4090
3850 1851 0
3897 1788 410
3966 1674 1203
3969 1647 2124
3964 1622 2880
3931 1632 3548
3707 2021 3988
3386 2501 4090
3738 2607 0
3762 2591 473
3811 2552 1183
3901 2473 1961
3845 2501 2742
3810 2519 3338
3702 2602 3888
3412 2862 4090
3610 3149 0
3627 3142 391
3662 3125 1116
3719 3094 1886
3760 3055 2732
3691 3078 3294
3796 3024 3804
3444 3215 4090
3444 3573 114
3448 3571 593
3462 3565 1217
3485 3554 1895
3525 3535 2545
3708 3442 3410
3707 3451 3744
3488 3534 4088
3294 3914 259
3293 3913 639
3290 3911 1218
3274 3910 1877
3430 3850 2987
3626 3791 3423
3688 3779 3714
3553 3818 4080
3550 4089 2973
3550 4089 2992
3551 4089 3043
3553 4089 3133
3555 4089 3272
3561 4088 3479
3618 4076 3775
3757 4049 4054
4095 1287 1294
4095 1289 1466
4095 1293 1842
4095 1298 2338
4095 1301 2869
4095 1309 3426
4095 1294 4052
3707 2238 4095
4095 1560 1309
4095 1561 1482
4085 1582 1861
4082 1593 2337
4078 1604 2853
4078 1610 3398
4070 1618 4007
3711 2348 4095
4095 2070 1297
4091 2074 1489
4052 2118 1930
4024 2153 2373
4020 2163 2825
4018 2173 3325
4006 2195 3890
3721 2591 4095
4095 2609 1055
4086 2613 1334
4046 2636 1895
3986 2673 2436
3943 2706 2846
3936 2721 3250
3916 2747 3741
3737 2906 4095
4053 3097 0
4069 3088 384
4039 3092 1540
3978 3107 2389
3910 3129 2925
3878 3150 3266
3859 3176 3628
3753 3231 4094
3919 3519 0
3932 3515 220
3955 3505 967
3964 3489 2024
3886 3492 2948
3869 3486 3408
3831 3514 3674
3751 3545 4092
3751 3876 145
3754 3874 556
3763 3870 1123
3780 3862 1758
3789 3838 2784
3821 3810 3385
3903 3779 3783
3767 3827 4090
3775 4090 2994
3775 4090 3014
3775 4090 3067
3775 4091 3159
3775 4091 3297
3777 4091 3490
3785 4090 3771
3892 4066 4070
4095 1931 1935
4095 1934 2014
4095 1941 2204
4095 1954 2492
4095 1973 2854
4095 2003 3284
4095 2055 3763
3933 2363 4095
4095 2085 1974
4095 2086 2051
4091 2097 2236
4089 2111 2512
4086 2132 2859
4084 2160 3275
4088 2198 3746
3934 2457 4095
4095 2403 2056
4095 2404 2129
4068 2431 2333
4048 2457 2585
4045 2472 2883
4042 2495 3255
4044 2528 3686
3936 2669 4095
4095 2789 2141
4092 2791 2219
4065 2808 2427
4021 2837 2696
3988 2866 2958
3986 2883 3253
3985 2913 3611
3940 2954 4095
4095 3164 2156
4089 3166 2253
4061 3175 2495
4020 3191 2791
3978 3211 3067
3981 3219 3319
3972 3240 3640
3945 3258 4095
4095 3508 1933
4089 3508 2084
4061 3511 2466
4020 3516 2862
3981 3524 3175
3983 3528 3399
3981 3538 3689
3950 3552 4095
4061 3842 0
4067 3839 372
4049 3829 1927
4010 3815 2873
3981 3809 3309
3980 3812 3493
3988 3815 3758
3950 3830 4094
3951 4092 2989
3951 4092 3010
3951 4092 3062
3951 4092 3154
3951 4092 3292
3950 4092 3494
3949 4093 3778
4000 4081 4083
4095 2298 2301
4095 2301 2347
4095 2308 2462
4095 2321 2650
4095 2341 2907
4095 2372 3240
4095 2423 3640
4095 2481 4069
4095 2402 2340
4095 2405 2384
4095 2411 2495
4095 2422 2675
4095 2439 2925
4095 2466 3250
4095 2511 3646
4095 2561 4070
4095 2632 2430
4095 2633 2470
4095 2637 2572
4095 2645 2737
4095 2657 2968
4095 2677 3277
4095 2708 3660
4095 2746 4072
4095 2934 2556
4095 2935 2591
4095 2937 2679
4095 2942 2827
4095 2949 3034
4095 2961 3317
4095 2980 3682
4095 3003 4075
4095 3249 2692
4095 3249 2721
4095 3251 2797
4095 3253 2925
4095 3257 3110
4095 3263 3366
4095 3273 3707
4095 3286 4079
4095 3549 2826
4095 3549 2850
4095 3550 2913
4095 3551 3021
4095 3553 3183
4095 3556 3416
4095 3560 3732
4095 3567 4083
4095 3825 2993
4095 3825 3011
4095 3826 3058
4095 3827 3142
4095 3829 3271
4095 3831 3467
4095 3833 3756
4095 3836 4089
4094 4085 3165
4094 4085 3180
4094 4086 3221
4094 4086 3292
4094 4087 3403
4094 4089 3570
4095 4091 3811
4095 4095 4095
