mars.3dl
#64pt 3DLUT created by 3D LUT Creator Pro (c) Oleg Sharonov
#Copyright Jens Tabel
#INPUTGAMMA sRGB
#IMAGEPROFILE sRGB
#OUTPUTGAMMA sRGB
0 341 682 1023
0 0 0
152 46 1488
620 271 3343
1708 1511 4082
362 2274 173
398 2268 1834
532 2218 3561
2135 2402 4081
772 3537 432
617 3540 1480
909 3509 3141
2744 3382 4070
2981 4081 2935
3001 4078 3045
3118 4061 3407
3449 4014 4023
2740 0 9
2748 0 1868
2770 73 3498
2550 1765 4085
2683 2231 0
2864 2139 1703
2938 2068 3373
2711 2495 4085
2388 3511 252
2539 3484 1660
2739 3440 3027
3037 3400 4077
3192 4085 2940
3197 4085 3046
3269 4073 3407
3559 4026 4033
4095 892 901
4095 888 1883
4095 847 3317
3612 2178 4094
4095 2128 534
4019 2198 1916
3975 2243 3155
3639 2660 4094
3833 3404 0
3887 3381 1255
3833 3358 3223
3661 3441 4091
3702 4090 2996
3702 4090 3095
3707 4091 3409
3848 4061 4064
4095 2298 2301
4095 2312 2517
4095 2360 3120
4095 2481 4069
4095 2728 2469
4095 2735 2652
4095 2760 3179
4095 2826 4073
4095 3451 2781
4095 3453 2907
4095 3459 3311
4095 3474 4082
4094 4085 3165
4094 4086 3241
4094 4088 3507
4095 4095 4095
