mars3.3dl
#64pt 3DLUT created by 3D LUT Creator Pro (c) Oleg Sharonov
#Copyright Jens Tabel
#INPUTGAMMA sRGB
#IMAGEPROFILE sRGB
#OUTPUTGAMMA sRGB
0 147 293 439 585 731 877 1023
0 0 0
30 14 562
116 56 1237
260 133 1966
473 268 2811
702 397 3545
1004 643 4069
1584 1361 4040
80 908 44
103 913 701
166 940 1558
268 965 2420
379 975 3166
459 901 3859
1104 1175 4049
1707 1662 4037
302 1979 177
308 1967 735
357 1967 1580
438 1973 2391
493 1985 3091
504 1974 3741
1249 2001 4031
1945 2201 4035
512 2741 332
399 2741 704
549 2711 1505
578 2708 2293
739 2699 2958
636 2717 3586
1360 2692 4004
2225 2719 4033
683 3257 444
481 3270 628
623 3236 1394
692 3219 2164
767 3205 2829
946 3197 3432
1244 3204 3965
2502 3142 4028
817 3636 518
561 3661 541
628 3631 1259
822 3601 1986
794 3586 2685
974 3565 3289
984 3577 3883
2739 3494 4020
923 3936 563
740 3956 585
640 3945 1103
746 3923 1814
900 3897 2492
872 3873 3146
1324 3854 3731
2985 3793 4020
2697 4044 2619
2779 4048 2740
2826 4049 2867
2896 4048 3041
3026 4045 3267
3081 4036 3483
3116 4029 3759
3442 4008 4015
1061 15 15
1069 21 632
1130 26 1412
1215 124 2233
1307 252 2963
1418 362 3617
1556 699 4055
1869 1437 4037
1238 956 21
1370 916 696
1514 858 1576
1462 939 2234
1497 980 2928
1559 987 3573
1686 1154 4008
1960 1709 4032
1258 1999 100
1323 1981 793
1497 1944 1505
1586 1902 2501
1488 1890 3215
1421 1792 3879
1836 1939 3985
2133 2212 4038
1280 2745 245
1410 2727 828
1476 2714 1402
1567 2689 2233
1625 2670 2995
1463 2667 3661
1950 2640 3971
2364 2717 4039
1290 3256 375
1408 3247 825
1526 3231 1345
1543 3219 2006
1640 3193 2787
1699 3182 3459
2076 3158 3934
2594 3139 4035
1302 3636 461
1403 3632 812
1465 3623 1254
1402 3619 1825
1521 3593 2597
1718 3562 3266
2078 3550 3875
2812 3492 4026
1316 3938 513
1409 3936 798
1452 3931 1180
1284 3936 1647
1486 3914 2369
1562 3883 3090
2119 3852 3730
3035 3795 4024
2864 4050 2725
3012 4049 2917
3007 4057 2987
3026 4056 3102
3072 4050 3266
3131 4040 3480
3159 4032 3759
3470 4011 4018
2393 71 75
2397 102 738
2412 69 1579
2434 57 2409
2482 79 3070
2498 246 3653
2434 768 4030
2381 1567 4030
2438 986 97
2541 896 635
2569 859 1542
2528 899 2374
2553 887 3025
2525 920 3617
2454 1206 3993
2413 1815 4034
2422 1980 58
2466 1949 638
2577 1882 1477
2655 1816 2389
2674 1796 2999
2664 1810 3495
2617 1920 3906
2517 2271 4042
2313 2735 136
2302 2719 732
2261 2715 1500
2928 2488 2501
2828 2509 3102
2689 2494 3708
2719 2585 3873
2661 2748 4050
2217 3244 247
2222 3233 718
2316 3208 1449
2553 3164 2245
2501 3175 2712
2608 3128 3522
2776 3103 3869
2820 3155 4051
2138 3619 342
2152 3615 711
2305 3590 1392
2513 3563 2133
2341 3591 2459
2459 3555 3245
2864 3504 3824
2984 3497 4041
2056 3922 401
2080 3921 707
2248 3901 1322
2708 3854 2332
2729 3859 2714
2868 3843 3219
2980 3822 3727
3151 3798 4035
3064 4053 2777
3133 4058 2914
3133 4060 2983
3140 4062 3098
3169 4061 3261
3248 4049 3483
3262 4042 3759
3535 4019 4026
3325 118 128
3312 146 761
3304 113 1606
3293 72 2419
3287 50 3087
3298 28 3678
3169 853 3993
2906 1756 4017
3301 980 141
3389 802 518
3383 751 1486
3346 765 2375
3318 787 3059
3306 805 3633
3159 1286 3964
2918 1961 4024
3234 1954 93
3270 1903 556
3357 1788 1306
3406 1689 2197
3319 1764 2938
3375 1658 3565
3206 1954 3897
2968 2363 4039
3142 2694 63
3156 2672 520
3205 2632 1263
3307 2567 2089
3399 2461 2951
3473 2387 3527
3292 2580 3798
3041 2801 4057
3000 3213 145
2991 3197 648
2998 3182 1340
3019 3174 2090
3511 2974 3025
3550 2934 3557
3351 3065 3750
3127 3187 4067
2858 3594 241
2841 3587 641
2850 3575 1276
2893 3569 1991
3165 3517 2736
3308 3486 3272
3409 3443 3787
3227 3512 4063
2760 3894 300
2758 3890 633
2802 3879 1219
2984 3857 2171
3277 3811 3039
3393 3795 3361
3483 3781 3719
3333 3804 4052
3333 4054 2892
3329 4056 2919
3326 4060 2987
3327 4066 3099
3336 4071 3260
3379 4067 3482
3425 4056 3763
3637 4032 4038
3945 114 134
3926 123 718
3907 85 1553
3879 36 2382
3847 6 3058
3829 0 3642
3667 988 3983
3366 1947 4004
3903 924 118
4002 623 280
3972 551 1344
3921 581 2295
3871 609 3026
3840 630 3623
3663 1377 3961
3370 2119 4011
3820 1897 74
3869 1800 364
3925 1639 1124
3930 1544 2091
3900 1502 2904
3854 1543 3543
3681 1976 3912
3387 2462 4028
3705 2654 42
3721 2624 429
3763 2570 1103
3863 2460 1878
3819 2456 2729
3770 2480 3346
3680 2589 3847
3415 2856 4051
3594 3173 30
3600 3158 366
3618 3133 1068
3677 3105 1829
3742 3056 2704
3714 3036 3377
3746 3043 3773
3451 3222 4072
3445 3560 121
3436 3545 563
3441 3534 1177
3464 3529 1865
3525 3519 2553
3743 3412 3532
3760 3424 3771
3495 3538 4081
3306 3862 226
3294 3856 585
3282 3853 1154
3300 3857 2069
3457 3835 3024
3654 3782 3454
3724 3770 3781
3558 3813 4071
3557 4048 2922
3555 4050 2945
3553 4054 3008
3553 4061 3114
3556 4071 3267
3565 4080 3483
3627 4071 3771
3765 4049 4053
4067 1036 1043
4061 1065 1277
4053 1042 1767
4038 1017 2360
4011 1036 2928
3986 1116 3447
4003 1144 3973
3697 2146 4009
4059 1393 1071
4054 1418 1318
4042 1427 1775
4029 1419 2327
4003 1442 2883
3978 1504 3409
3987 1540 3941
3703 2284 4015
4049 2018 964
4044 2023 1282
4009 2057 1827
3983 2076 2335
3970 2079 2829
3947 2116 3333
3942 2163 3855
3716 2563 4028
4037 2625 535
4019 2629 1085
3992 2638 1777
3951 2656 2385
3917 2677 2833
3902 2693 3255
3879 2737 3736
3736 2903 4047
3988 3139 0
3995 3120 309
3957 3118 1503
3930 3121 2357
3891 3127 2909
3869 3141 3267
3838 3174 3636
3747 3244 4067
3876 3527 0
3883 3518 192
3886 3500 893
3896 3497 2094
3864 3500 2950
3866 3484 3405
3852 3497 3721
3751 3556 4083
3726 3836 110
3719 3825 505
3723 3819 1063
3742 3820 1709
3774 3826 2868
3823 3811 3412
3917 3768 3836
3773 3828 4088
3776 4046 2959
3776 4048 2984
3775 4052 3046
3773 4058 3149
3771 4067 3298
3775 4079 3495
3790 4088 3776
3896 4067 4069
4049 1729 1734
4048 1756 1858
4046 1758 2120
4041 1762 2476
4028 1795 2878
4009 1882 3303
4005 2011 3735
3915 2299 4027
4048 1947 1798
4048 1972 1925
4046 1984 2163
4040 1998 2490
4027 2032 2869
4008 2103 3283
4005 2197 3719
3921 2417 4032
4045 2350 1869
4047 2360 2005
4027 2387 2268
4010 2412 2560
4004 2432 2883
3989 2476 3258
3982 2543 3671
3928 2656 4042
4036 2791 1946
4039 2794 2102
4022 2806 2369
3990 2829 2674
3964 2859 2957
3962 2881 3257
3958 2917 3623
3936 2958 4056
4020 3186 2004
4022 3189 2192
4011 3192 2478
3988 3199 2786
3970 3209 3055
3975 3218 3322
3971 3237 3654
3942 3269 4070
4003 3519 1944
4007 3524 2196
4000 3527 2561
3984 3528 2909
3977 3527 3157
3981 3528 3396
3981 3539 3693
3948 3562 4083
4012 3821 0
3982 3804 1272
3989 3819 2404
3987 3821 3026
3984 3818 3303
3983 3817 3489
3989 3814 3757
3948 3836 4091
3951 4054 2960
3953 4056 2985
3953 4058 3047
3952 4063 3149
3951 4069 3295
3949 4078 3502
3947 4089 3784
4002 4081 4083
4049 2142 2146
4050 2168 2228
4050 2179 2391
4049 2195 2626
4043 2231 2913
4029 2271 3250
4018 2346 3642
4043 2418 4025
4051 2298 2213
4052 2323 2296
4053 2338 2445
4053 2343 2654
4048 2357 2923
4035 2388 3257
4023 2455 3648
4047 2522 4030
4052 2590 2316
4054 2604 2397
4057 2601 2520
4059 2605 2712
4058 2616 2964
4049 2637 3281
4036 2683 3662
4057 2736 4040
4052 2932 2458
4055 2930 2516
4059 2926 2625
4065 2928 2799
4069 2937 3029
4066 2952 3321
4053 2977 3683
4069 3011 4054
4048 3257 2611
4051 3252 2646
4056 3248 2740
4065 3249 2893
4075 3255 3102
4080 3268 3370
4072 3282 3708
4080 3299 4067
4043 3553 2758
4045 3551 2788
4051 3549 2864
4059 3548 2991
4071 3549 3173
4085 3557 3421
4087 3571 3733
4089 3578 4079
4051 3827 2954
4052 3828 2976
4055 3827 3031
4060 3826 3123
4068 3826 3263
4080 3827 3470
4092 3834 3762
4094 3840 4088
4074 4067 3145
4075 4068 3165
4077 4070 3213
4080 4074 3292
4084 4078 3410
4088 4084 3579
4093 4090 3817
4095 4095 4095
