mars4.3dl
#Created by: Adobe Photoshop Export Color Lookup Plugin
#Description: mars4
0 33 66 99 132 165 198 231 264 297 330 363 396 429 462 495 528 561 594 627 660 693 726 759 792 825 858 891 924 957 990 1023
0 0 0
3 0 131
10 4 244
17 8 379
27 11 512
39 17 655
56 27 798
75 35 959
96 46 1103
121 59 1265
149 74 1427
179 89 1580
213 106 1744
250 127 1917
289 150 2100
336 179 2299
386 210 2497
439 244 2688
488 277 2862
541 310 3038
592 340 3202
644 368 3367
695 394 3524
745 414 3681
792 431 3832
840 441 3981
919 522 4075
1071 735 4064
1212 914 4054
1349 1082 4047
1473 1230 4043
1584 1361 4040
10 218 4
13 221 145
17 216 285
21 218 439
29 214 593
37 211 757
45 205 924
58 200 1101
70 194 1279
84 187 1467
99 179 1649
116 171 1845
135 163 2041
169 165 2232
226 190 2392
286 216 2556
343 245 2711
401 276 2868
454 304 3015
509 332 3167
562 358 3312
615 383 3456
667 404 3601
718 424 3745
768 437 3887
815 447 4030
931 586 4074
1086 787 4061
1227 959 4052
1365 1122 4046
1489 1266 4042
1600 1394 4040
20 383 11
25 386 134
25 386 278
49 378 422
34 384 577
47 381 739
57 379 906
68 379 1083
83 380 1269
101 381 1463
119 383 1662
142 389 1878
166 392 2083
194 397 2295
223 398 2490
253 396 2684
282 391 2870
311 378 3052
337 359 3226
398 369 3361
462 388 3486
524 406 3613
583 424 3739
641 439 3867
695 450 3994
785 520 4078
950 710 4068
1106 884 4057
1251 1042 4050
1387 1191 4045
1512 1328 4041
1623 1451 4039
38 566 18
37 571 132
43 569 275
46 570 428
109 563 575
66 577 752
72 583 927
91 592 1124
110 597 1323
125 604 1529
145 611 1732
169 619 1942
194 624 2136
223 631 2336
250 635 2522
280 637 2706
308 638 2881
336 634 3053
362 626 3219
387 611 3385
408 590 3546
428 559 3710
444 517 3871
472 477 4022
600 542 4087
798 708 4072
971 860 4061
1131 1009 4053
1277 1149 4047
1418 1287 4043
1541 1411 4040
1652 1527 4038
65 801 36
52 807 142
81 804 290
76 804 454
82 808 616
168 803 784
129 817 975
118 827 1172
136 833 1372
160 839 1579
184 845 1782
203 850 1983
223 857 2173
250 863 2365
277 870 2543
302 872 2719
329 875 2886
355 874 3055
379 870 3214
402 860 3376
423 846 3532
440 824 3691
454 794 3848
465 752 4006
596 787 4077
814 910 4064
995 1032 4055
1163 1158 4049
1313 1280 4044
1453 1401 4041
1578 1514 4039
1689 1618 4037
105 1059 57
71 1066 147
98 1064 306
125 1059 470
117 1062 642
132 1064 821
229 1058 998
225 1064 1197
183 1077 1401
189 1085 1605
214 1091 1804
243 1095 2004
266 1100 2194
286 1106 2380
304 1112 2554
327 1116 2727
350 1118 2887
373 1119 3052
395 1117 3206
416 1110 3364
433 1100 3517
448 1084 3671
461 1060 3825
469 1027 3981
584 1035 4070
827 1128 4057
1023 1224 4050
1198 1327 4045
1353 1430 4041
1497 1535 4039
1622 1634 4038
1734 1728 4037
153 1311 85
93 1321 148
122 1318 313
167 1310 480
176 1310 653
168 1312 837
191 1314 1022
290 1305 1207
328 1306 1407
261 1322 1616
251 1329 1812
268 1335 2010
295 1339 2196
322 1343 2381
345 1348 2555
362 1352 2724
375 1355 2883
394 1357 3043
412 1357 3194
430 1352 3350
444 1345 3498
457 1333 3650
467 1314 3801
472 1287 3955
565 1280 4060
834 1346 4052
1050 1422 4045
1236 1504 4041
1398 1589 4039
1545 1678 4037
1672 1763 4036
1784 1844 4036
206 1562 115
121 1573 146
149 1568 318
188 1561 487
237 1552 657
231 1556 844
223 1558 1031
251 1558 1224
344 1550 1411
441 1543 1605
351 1561 1811
318 1570 2008
323 1575 2192
345 1579 2373
371 1582 2543
396 1585 2711
416 1588 2870
427 1590 3028
435 1592 3178
447 1591 3330
460 1585 3477
469 1577 3627
477 1562 3775
479 1541 3926
533 1524 4051
836 1569 4047
1075 1625 4041
1276 1688 4038
1445 1755 4036
1597 1828 4036
1726 1900 4036
1838 1969 4036
258 1795 147
161 1808 153
177 1803 318
216 1795 489
268 1785 660
294 1780 843
282 1784 1031
277 1787 1229
308 1786 1420
401 1777 1607
550 1761 1787
439 1781 1995
389 1793 2180
381 1799 2360
394 1802 2528
417 1806 2694
441 1808 2850
461 1809 3007
474 1810 3157
478 1810 3308
479 1808 3453
486 1802 3600
489 1792 3747
489 1776 3896
493 1757 4040
829 1783 4042
1097 1822 4036
1316 1868 4034
1495 1920 4034
1652 1978 4034
1783 2037 4035
1895 2095 4035
311 2012 184
229 2024 186
208 2023 314
243 2015 490
286 2006 661
347 1995 838
345 1995 1026
334 1999 1223
332 2002 1416
366 1999 1609
453 1990 1789
608 1974 1966
537 1988 2157
464 2001 2341
440 2008 2508
443 2012 2672
461 2014 2827
482 2016 2982
501 2017 3130
515 2017 3281
519 2015 3425
513 2014 3572
508 2008 3716
504 1997 3864
498 1981 4009
813 1990 4036
1116 2014 4031
1355 2045 4030
1545 2083 4031
1709 2128 4033
1842 2175 4034
1955 2221 4035
360 2208 220
294 2219 223
238 2221 309
272 2212 487
309 2203 658
361 2193 836
403 2185 1016
392 2188 1211
381 2191 1406
383 2193 1601
418 2191 1785
509 2180 1963
658 2165 2127
627 2173 2312
541 2187 2484
500 2195 2649
493 2199 2803
503 2202 2956
520 2203 3101
537 2204 3251
549 2203 3394
552 2201 3541
543 2197 3685
527 2191 3831
515 2181 3975
785 2179 4030
1130 2191 4026
1391 2210 4026
1595 2236 4028
1765 2269 4031
1903 2305 4033
2016 2344 4035
409 2391 256
356 2400 260
268 2407 302
299 2398 481
334 2389 653
377 2379 830
436 2369 1006
450 2366 1197
438 2369 1390
428 2371 1585
433 2372 1772
471 2368 1954
556 2359 2121
710 2344 2282
727 2345 2449
618 2360 2620
563 2369 2776
542 2375 2928
544 2377 3072
557 2379 3219
571 2379 3361
581 2378 3506
580 2376 3650
569 2372 3796
545 2366 3939
739 2360 4023
1138 2361 4019
1427 2370 4022
1646 2386 4025
1823 2409 4029
1965 2436 4032
2080 2466 4035
455 2552 290
412 2560 294
304 2570 300
325 2561 472
357 2552 644
396 2543 821
445 2533 998
500 2525 1180
493 2525 1371
480 2528 1566
472 2529 1753
479 2529 1938
519 2525 2107
609 2516 2271
757 2502 2421
813 2498 2582
692 2513 2744
622 2524 2899
590 2530 3044
584 2532 3188
591 2534 3328
601 2535 3472
607 2534 3614
604 2531 3760
588 2527 3903
708 2521 4010
1140 2515 4011
1460 2516 4016
1694 2523 4021
1881 2538 4027
2026 2557 4031
2142 2579 4034
501 2704 323
464 2711 326
369 2720 331
351 2715 462
380 2706 634
414 2698 810
457 2689 986
512 2679 1166
544 2674 1349
534 2675 1542
522 2677 1729
514 2677 1915
524 2676 2088
566 2672 2255
654 2663 2407
805 2649 2555
907 2641 2701
766 2658 2864
681 2668 3011
638 2674 3157
623 2678 3296
624 2680 3437
629 2680 3577
631 2680 3721
623 2678 3863
654 2673 3997
1146 2660 4002
1491 2655 4009
1743 2655 4017
1940 2662 4024
2089 2675 4030
2208 2690 4034
543 2838 353
512 2844 355
427 2853 359
374 2853 448
402 2843 621
432 2835 797
470 2826 972
518 2817 1151
578 2808 1328
583 2806 1517
571 2807 1703
558 2808 1890
553 2808 2064
567 2807 2234
610 2802 2389
704 2793 2539
852 2780 2677
982 2770 2821
832 2786 2975
733 2797 3124
680 2803 3263
658 2807 3404
653 2810 3542
653 2811 3684
650 2810 3825
636 2809 3969
1134 2792 3993
1528 2781 4002
1791 2776 4012
1997 2778 4021
2151 2784 4028
2271 2795 4033
584 2965 380
560 2970 384
483 2979 387
396 2984 433
423 2974 606
451 2965 781
484 2956 954
525 2948 1132
577 2939 1308
626 2932 1488
619 2932 1673
606 2933 1860
595 2933 2034
591 2932 2207
607 2929 2365
655 2924 2518
747 2916 2658
903 2903 2796
1062 2892 2931
893 2908 3087
785 2919 3229
720 2926 3370
691 2930 3507
680 2933 3647
675 2935 3786
666 2935 3928
1088 2920 3984
1553 2902 3994
1846 2892 4007
2057 2890 4017
2214 2890 4026
2336 2896 4032
621 3079 405
602 3084 408
532 3091 412
425 3099 425
441 3090 589
468 3082 763
498 3073 935
534 3066 1112
578 3057 1288
636 3049 1464
660 3044 1642
649 3044 1828
638 3044 2004
628 3043 2177
627 3042 2337
646 3039 2494
697 3034 2637
798 3025 2776
955 3013 2906
1120 3002 3043
944 3018 3192
825 3029 3335
754 3036 3474
718 3041 3613
702 3045 3750
692 3046 3890
1002 3037 3975
1561 3014 3986
1891 2999 4001
2119 2991 4014
2277 2989 4024
2397 2990 4031
659 3187 430
642 3193 431
578 3199 436
480 3207 443
459 3202 570
484 3193 743
511 3185 914
543 3178 1089
582 3170 1263
632 3162 1440
690 3154 1610
691 3151 1793
680 3151 1969
669 3150 2143
659 3149 2305
662 3147 2464
683 3143 2610
740 3138 2753
842 3130 2885
1013 3118 3016
1179 3107 3147
989 3123 3297
860 3134 3439
783 3142 3577
742 3147 3713
721 3151 3852
889 3148 3963
1548 3122 3978
1927 3103 3995
2177 3090 4010
2345 3084 4021
2459 3082 4029
693 3286 451
679 3290 452
621 3296 458
530 3304 463
476 3304 549
498 3294 722
523 3287 892
552 3279 1065
587 3272 1238
630 3264 1414
682 3256 1582
727 3249 1758
719 3248 1932
707 3247 2108
695 3246 2271
689 3244 2433
693 3242 2580
719 3238 2727
780 3232 2861
896 3223 2994
1073 3211 3120
1214 3204 3255
1019 3219 3402
885 3231 3543
804 3239 3679
760 3244 3817
755 3248 3949
1514 3221 3970
1951 3199 3989
2227 3183 4006
2407 3172 4018
2519 3167 4027
726 3380 470
715 3384 471
661 3390 477
580 3397 482
491 3402 526
513 3392 699
535 3384 867
561 3377 1039
592 3370 1211
629 3363 1384
675 3355 1553
734 3347 1724
754 3342 1894
744 3341 2069
733 3339 2234
722 3338 2396
717 3336 2548
724 3333 2696
754 3328 2834
823 3322 2970
944 3313 3097
1142 3302 3225
1246 3298 3360
1041 3313 3507
905 3324 3644
821 3332 3782
775 3338 3915
1451 3317 3962
1966 3293 3983
2273 3274 4002
2467 3260 4016
2577 3252 4025
756 3466 487
747 3470 489
697 3476 495
623 3482 500
516 3490 513
525 3481 674
546 3473 842
569 3466 1013
597 3459 1182
630 3453 1355
670 3446 1523
721 3438 1693
778 3430 1856
777 3428 2030
767 3426 2195
755 3423 2359
746 3421 2512
743 3418 2663
753 3415 2803
790 3410 2942
867 3404 3072
1006 3395 3201
1221 3384 3326
1254 3385 3467
1051 3399 3609
913 3410 3748
832 3418 3881
1359 3405 3955
1970 3380 3977
2312 3357 3998
2524 3342 4013
2630 3331 4023
786 3549 504
779 3553 505
731 3558 510
664 3564 515
563 3571 524
537 3567 649
556 3559 814
578 3552 984
602 3545 1151
631 3539 1323
666 3532 1490
711 3525 1660
764 3518 1821
806 3511 1987
798 3509 2153
787 3506 2319
777 3504 2473
768 3501 2627
767 3498 2770
782 3493 2911
825 3488 3044
915 3482 3174
1069 3474 3301
1312 3464 3430
1259 3469 3571
1052 3483 3713
919 3493 3847
1235 3489 3945
1963 3462 3972
2350 3440 3995
2577 3421 4012
2683 3410 4021
813 3626 516
807 3630 518
763 3635 523
701 3640 529
607 3648 536
548 3648 623
566 3640 787
586 3632 954
607 3626 1121
633 3619 1290
664 3613 1456
702 3607 1625
749 3600 1787
807 3592 1949
826 3588 2110
817 3585 2276
806 3582 2433
795 3579 2588
789 3576 2733
791 3572 2878
811 3567 3013
864 3562 3147
967 3555 3276
1147 3547 3404
1407 3538 3532
1246 3549 3676
1048 3562 3813
1090 3567 3934
1945 3541 3966
2384 3517 3992
2629 3496 4010
2732 3484 4020
840 3700 530
835 3704 531
793 3708 536
736 3714 541
651 3721 549
559 3725 594
575 3717 757
592 3710 924
611 3703 1088
635 3697 1256
662 3692 1420
696 3685 1589
736 3679 1750
787 3672 1913
843 3665 2067
844 3661 2232
834 3658 2389
823 3654 2546
814 3650 2694
809 3647 2841
814 3642 2979
841 3638 3116
905 3632 3247
1027 3625 3377
1230 3618 3503
1496 3611 3636
1231 3626 3778
1038 3639 3913
1922 3615 3959
2416 3591 3989
2682 3570 4010
2782 3557 4019
864 3770 541
860 3773 542
821 3778 546
768 3783 552
688 3789 560
582 3796 579
584 3789 728
599 3782 892
616 3776 1055
637 3770 1221
660 3765 1384
690 3759 1552
726 3753 1713
770 3746 1875
824 3740 2029
866 3733 2186
859 3730 2345
849 3726 2504
839 3722 2654
831 3718 2803
828 3713 2943
838 3709 3083
872 3704 3217
951 3698 3349
1095 3692 3476
1332 3685 3605
1470 3685 3740
1204 3700 3880
1900 3685 3950
2450 3661 3986
2734 3639 4009
2832 3626 4019
887 3838 551
884 3841 552
849 3845 556
799 3850 562
725 3856 569
621 3863 582
591 3860 697
605 3853 859
621 3847 1021
639 3841 1185
660 3836 1347
686 3830 1513
716 3825 1673
756 3819 1836
802 3812 1989
861 3805 2144
882 3800 2298
873 3796 2458
864 3792 2609
854 3787 2762
847 3783 2904
847 3778 3047
862 3773 3184
907 3768 3319
1002 3762 3448
1174 3757 3578
1442 3752 3705
1431 3758 3844
1896 3752 3938
2489 3729 3982
2791 3707 4009
2887 3694 4019
911 3901 559
908 3904 560
873 3909 565
826 3913 570
758 3918 577
659 3926 587
598 3927 666
611 3919 828
625 3913 987
641 3908 1149
659 3903 1309
682 3897 1474
709 3892 1634
743 3887 1795
784 3881 1950
835 3874 2105
891 3868 2252
894 3863 2411
886 3858 2565
876 3854 2718
868 3849 2864
862 3843 3009
866 3838 3148
888 3833 3287
946 3828 3418
1064 3823 3550
1265 3819 3676
1572 3816 3807
1936 3813 3921
2543 3792 3977
2854 3771 4008
2947 3759 4019
932 3964 567
930 3967 568
897 3971 572
852 3975 577
789 3980 584
697 3987 594
605 3992 634
617 3985 795
629 3979 952
643 3974 1112
660 3969 1270
679 3964 1434
703 3959 1592
732 3954 1754
767 3948 1908
812 3942 2064
865 3936 2210
912 3929 2363
907 3925 2516
897 3919 2673
889 3914 2820
880 3908 2968
878 3903 3111
885 3897 3251
916 3893 3386
991 3888 3520
1134 3884 3647
1377 3882 3776
2067 3871 3895
2625 3854 3968
2932 3833 4007
3020 3821 4020
953 4022 573
950 4025 574
920 4029 577
878 4034 583
