mars3.3dl
#64pt 3DLUT created by 3D LUT Creator Pro (c) Oleg Sharonov
#Copyright Jens Tabel
#INPUTGAMMA sRGB
#IMAGEPROFILE sRGB
#OUTPUTGAMMA sRGB
0 341 682 1023
0 0 0
160 78 1477
626 359 3310
1584 1361 4040
376 2269 233
435 2250 1841
562 2262 3480
2037 2383 4035
775 3521 499
682 3501 1557
897 3455 3139
2665 3383 4022
2697 4044 2619
2845 4049 2920
3080 4038 3409
3442 4008 4015
2752 91 97
2755 77 1884
2817 76 3471
2562 1625 4027
2704 2253 64
2859 2142 1701
2943 2042 3354
2703 2459 4047
2433 3496 277
2543 3462 1616
2737 3432 3038
3012 3394 4052
3150 4054 2810
3192 4062 3016
3256 4060 3401
3565 4023 4029
4095 608 619
4065 579 1865
3994 585 3360
3608 2074 4006
4076 2133 19
3977 2152 1818
3917 2175 3167
3636 2640 4032
3798 3419 0
3823 3383 1181
3827 3356 3214
3663 3452 4080
3705 4047 2957
3701 4054 3075
3706 4076 3412
3854 4061 4064
4049 2142 2146
4050 2183 2463
4034 2255 3131
4043 2418 4025
4053 2702 2359
4059 2707 2608
4058 2731 3182
4061 2824 4044
4044 3457 2707
4055 3451 2861
4081 3459 3312
4086 3487 4075
4074 4067 3145
4078 4071 3235
4087 4082 3515
4095 4095 4095
