mars2.3dl
#64pt 3DLUT created by 3D LUT Creator Pro (c) Oleg Sharonov
#Copyright Jens Tabel
#INPUTGAMMA sRGB
#IMAGEPROFILE sRGB
#OUTPUTGAMMA sRGB
0 17 33 49 65 82 98 114 130 147 163 179 195 212 228 244 260 277 293 309 325 341 358 374 390 406 423 439 455 471 488 504 520 536 553 569 585 601 618 634 650 666 682 699 715 731 747 764 780 796 812 829 845 861 877 894 910 926 942 959 975 991 1007 1023 
0 0 0
3 0 61
3 0 126
6 3 188
9 3 240
12 3 289
15 6 368
18 6 438
24 6 500
30 9 584
36 12 658
43 12 726
49 15 791
58 18 870
67 21 943
76 24 1012
86 27 1092
98 30 1168
111 33 1253
123 36 1332
136 40 1407
152 46 1488
167 49 1565
185 55 1647
199 61 1727
215 64 1805
233 73 1893
252 80 1989
273 89 2083
295 98 2185
318 108 2282
342 120 2381
364 129 2473
388 142 2565
412 155 2657
437 170 2748
462 185 2839
486 199 2923
513 212 3011
538 225 3093
565 240 3178
593 257 3261
620 271 3343
647 286 3423
677 301 3504
706 318 3587
736 334 3668
766 351 3746
797 368 3828
828 384 3908
859 402 3987
892 419 4066
966 538 4081
1047 664 4081
1125 775 4081
1200 878 4082
1274 976 4082
1346 1067 4082
1413 1152 4082
1478 1233 4082
1541 1309 4082
1600 1381 4082
1655 1448 4082
1708 1511 4082
6 114 3
6 104 67
9 104 139
6 104 212
9 111 293
9 108 362
9 108 442
12 104 520
12 101 595
15 98 669
18 95 754
18 92 836
21 92 930
24 86 1007
30 83 1107
33 76 1190
36 70 1283
43 64 1370
46 58 1454
52 52 1545
67 55 1619
83 58 1677
101 64 1754
120 70 1820
139 73 1896
164 83 1981
185 89 2065
207 95 2147
233 104 2236
257 114 2331
282 126 2419
306 136 2508
332 148 2598
355 161 2681
381 173 2765
407 188 2849
432 202 2927
459 215 3010
485 228 3088
511 243 3169
538 255 3245
566 271 3325
594 284 3402
624 299 3482
653 314 3561
682 330 3637
713 346 3715
744 362 3793
775 379 3870
807 395 3950
840 412 4027
889 467 4081
973 598 4081
1054 713 4081
1132 816 4081
1208 917 4082
1282 1009 4082
1353 1096 4082
1421 1180 4082
1486 1258 4082
1548 1333 4082
1607 1403 4082
1663 1469 4082
1715 1530 4082
9 212 3
9 215 64
9 215 139
27 210 207
15 212 282
12 210 351
15 210 429
15 210 507
18 207 582
18 207 666
21 207 749
21 204 831
24 199 911
27 196 1000
30 193 1086
33 188 1170
40 185 1261
43 179 1350
49 173 1443
52 167 1534
58 161 1622
64 155 1718
70 145 1812
80 139 1915
86 133 2014
95 123 2111
104 114 2214
126 117 2310
158 126 2391
190 136 2475
220 145 2553
250 158 2633
278 170 2708
306 179 2784
334 193 2862
362 204 2939
391 218 3017
419 230 3089
448 243 3166
476 257 3239
505 271 3315
534 284 3390
564 297 3464
594 312 3537
624 326 3612
656 342 3689
687 357 3764
719 373 3837
751 390 3914
784 405 3988
816 422 4064
893 528 4081
978 648 4081
1061 758 4081
1140 859 4081
1216 952 4082
1290 1042 4082
1362 1127 4082
1429 1208 4082
1495 1285 4082
1557 1357 4082
1616 1425 4082
1671 1489 4082
1723 1549 4082
15 297 6
12 299 64
15 299 136
15 299 207
30 295 275
27 293 347
21 295 424
21 295 500
24 293 577
24 293 660
24 293 743
27 291 824
30 286 905
30 284 992
33 282 1077
36 278 1161
43 275 1251
46 271 1339
52 269 1435
55 266 1530
61 262 1623
67 259 1724
73 255 1823
83 252 1928
92 248 2031
101 243 2132
111 238 2236
123 233 2343
136 228 2443
148 218 2544
161 210 2638
176 199 2734
193 190 2819
230 199 2889
266 212 2959
301 223 3031
334 235 3103
366 248 3170
398 259 3243
430 271 3311
462 284 3382
494 297 3454
525 312 3524
557 326 3594
590 340 3666
622 353 3737
656 370 3812
688 384 3883
723 400 3957
757 415 4029
808 467 4081
898 589 4081
985 700 4081
1067 802 4081
1147 898 4081
1223 987 4081
1298 1075 4082
1368 1155 4082
1438 1235 4082
1503 1310 4082
1565 1381 4082
1623 1447 4082
1679 1510 4082
1731 1569 4082
18 381 9
15 382 61
21 381 129
21 381 202
21 381 273
40 379 344
43 375 417
30 377 494
27 377 569
30 377 651
33 375 734
36 373 816
36 372 897
36 370 983
40 370 1069
43 370 1163
46 366 1249
52 366 1349
55 364 1441
61 364 1540
67 362 1637
73 362 1741
80 361 1844
89 361 1952
98 359 2057
108 357 2156
117 353 2258
129 351 2361
142 347 2459
155 342 2557
167 336 2650
182 330 2743
196 320 2832
210 310 2920
223 299 3009
238 289 3098
252 275 3186
275 266 3264
318 278 3331
355 291 3394
393 303 3461
432 316 3528
467 328 3594
503 342 3661
539 355 3729
576 370 3799
610 382 3868
646 398 3936
682 412 4008
719 429 4078
812 546 4081
905 656 4081
992 758 4081
1076 853 4081
1156 944 4081
1234 1030 4081
1307 1113 4082
1380 1192 4082
1447 1267 4082
1513 1340 4082
1575 1408 4082
1633 1473 4082
1688 1534 4082
1740 1592 4082
27 465 9
15 468 61
24 467 126
27 467 196
27 465 269
30 464 340
49 462 410
67 459 486
43 462 565
40 465 647
40 465 730
43 465 814
46 462 899
49 464 990
49 464 1080
52 464 1169
55 465 1265
58 465 1362
64 467 1465
70 468 1568
73 470 1669
83 471 1774
89 471 1877
98 473 1983
108 471 2085
117 470 2182
126 468 2281
139 467 2381
148 464 2476
161 460 2572
176 456 2663
188 453 2754
202 445 2841
215 438 2929
228 432 3016
243 422 3103
257 414 3190
273 402 3273
289 390 3359
303 375 3441
318 361 3526
336 344 3611
375 347 3677
419 361 3739
462 373 3804
504 386 3870
545 400 3936
585 414 4000
625 429 4068
720 525 4081
819 631 4081
913 731 4081
1001 823 4081
1086 912 4081
1167 997 4081
1244 1077 4081
1319 1158 4082
1390 1232 4082
1459 1306 4082
1525 1375 4082
1586 1441 4082
1644 1504 4082
1699 1563 4082
1751 1619 4082
33 558 15
18 562 61
27 562 126
36 562 196
36 561 269
36 561 342
40 562 417
61 561 492
104 556 569
67 564 657
55 564 737
52 568 827
55 568 915
61 570 1009
64 572 1104
67 572 1200
70 574 1299
70 577 1398
76 580 1502
80 582 1604
86 582 1704
92 584 1808
101 585 1908
108 586 2011
117 585 2111
126 584 2206
136 584 2302
148 582 2400
158 581 2493
170 577 2581
182 576 2676
196 570 2761
207 566 2851
220 561 2936
235 556 3022
250 549 3108
262 542 3190
278 534 3275
293 524 3361
308 514 3442
322 503 3526
338 488 3606
355 474 3692
372 457 3774
388 440 3858
405 420 3941
445 420 4011
495 433 4074
614 532 4081
725 630 4081
827 723 4081
922 810 4081
1012 894 4081
1098 977 4081
1180 1057 4081
1257 1132 4081
1332 1206 4082
1403 1278 4082
1472 1348 4082
1538 1416 4082
1599 1478 4082
1658 1540 4082
1713 1596 4082
1764 1651 4082
46 671 18
24 676 61
30 676 133
40 676 202
49 676 275
49 676 351
49 678 430
55 679 510
76 678 589
139 674 671
101 678 760
76 681 848
70 686 942
73 689 1037
76 690 1133
83 689 1230
89 692 1331
92 693 1431
95 696 1534
95 697 1635
101 698 1734
108 700 1835
114 701 1934
120 700 2030
129 702 2132
139 700 2226
148 700 2320
158 700 2416
170 698 2507
179 695 2594
193 694 2686
204 689 2770
218 687 2858
228 682 2943
243 678 3027
255 673 3112
269 666 3193
282 660 3277
297 652 3358
312 645 3442
328 635 3525
342 624 3605
359 613 3689
375 599 3771
391 585 3854
409 569 3936
425 552 4020
482 564 4080
613 651 4081
732 736 4081
836 816 4081
933 895 4081
1024 972 4081
1112 1048 4081
1195 1121 4081
1272 1192 4081
1347 1262 4082
1419 1330 4082
1488 1396 4082
1553 1459 4082
1615 1520 4082
1674 1579 4082
1728 1634 4082
1779 1686 4082
61 795 24
30 800 61
36 800 139
46 800 212
61 799 284
67 799 361
64 801 443
64 802 525
70 802 608
98 803 692
164 799 777
148 801 871
108 805 963
95 809 1059
95 810 1155
98 810 1251
104 811 1352
111 812 1453
117 814 1557
120 815 1658
123 815 1757
123 817 1857
129 817 1955
136 819 2054
145 819 2150
152 817 2242
161 817 2335
170 817 2428
182 816 2518
193 815 2608
202 813 2694
215 811 2781
225 807 2864
238 803 2947
250 800 3030
264 796 3114
275 791 3197
289 785 3277
303 779 3360
318 771 3440
332 764 3522
347 755 3604
362 745 3685
379 734 3766
395 722 3848
412 709 3930
430 695 4015
476 696 4080
618 770 4080
737 842 4080
845 913 4081
945 983 4081
1039 1052 4081
1127 1122 4081
1211 1190 4081
1289 1256 4081
1366 1323 4081
1437 1386 4082
1506 1449 4082
1571 1509 4082
1633 1567 4082
1690 1622 4082
1745 1674 4082
1795 1724 4082
80 922 30
36 928 61
43 928 142
52 926 218
64 927 293
86 926 368
86 927 451
83 928 537
83 928 622
92 927 706
120 927 793
188 922 879
204 924 978
152 930 1077
126 933 1174
120 934 1270
120 936 1371
126 936 1471
136 936 1574
142 937 1676
148 936 1776
155 937 1877
155 937 1974
158 937 2067
161 937 2162
170 938 2256
179 937 2348
188 937 2440
196 936 2529
204 934 2614
215 932 2699
225 930 2784
235 928 2869
248 926 2952
259 922 3034
271 918 3116
284 914 3195
297 909 3277
310 903 3357
324 897 3438
338 891 3520
353 882 3598
368 874 3679
384 864 3761
400 854 3843
415 842 3925
433 830 4007
470 826 4080
617 887 4080
745 951 4080
857 1013 4080
959 1076 4081
1054 1139 4081
1144 1202 4081
1228 1263 4081
1308 1325 4081
1384 1387 4081
1456 1446 4082
1525 1505 4082
1590 1561 4082
1651 1616 4082
1710 1669 4082
1764 1719 4082
1814 1766 4082
98 1048 40
46 1055 61
52 1055 145
58 1055 223
70 1054 297
89 1052 373
108 1052 454
104 1053 541
101 1053 629
104 1056 719
114 1056 807
145 1054 896
212 1049 986
264 1046 1083
199 1052 1185
164 1055 1283
148 1057 1383
148 1058 1483
155 1059 1585
161 1060 1686
170 1058 1786
176 1059 1887
182 1058 1985
188 1059 2082
190 1059 2176
190 1058 2266
196 1058 2357
204 1058 2447
212 1057 2535
220 1054 2619
230 1054 2706
238 1052 2791
248 1049 2872
259 1047 2953
271 1043 3035
282 1040 3116
293 1037 3197
306 1032 3275
318 1028 3356
332 1021 3435
346 1015 3515
361 1009 3595
373 1001 3676
390 992 3755
405 983 3836
420 973 3917
437 961 3999
457 952 4080
619 1005 4080
750 1058 4080
866 1114 4080
973 1170 4080
1070 1226 4081
1161 1283 4081
1248 1341 4081
1328 1397 4081
1406 1455 4081
1478 1510 4081
1547 1565 4082
1612 1618 4082
1673 1670 4082
1730 1719 4082
1784 1766 4082
1834 1811 4082
120 1174 49
55 1181 58
61 1181 145
67 1181 223
80 1181 301
95 1179 379
120 1178 457
129 1178 544
126 1178 633
126 1181 724
126 1179 814
139 1178 906
173 1178 998
240 1175 1091
324 1167 1186
250 1173 1291
207 1178 1393
185 1180 1493
179 1182 1594
182 1182 1694
188 1181 1793
196 1181 1893
204 1181 1991
212 1178 2086
218 1180 2184
223 1178 2275
225 1178 2365
225 1178 2454
230 1178 2540
238 1176 2624
245 1175 2710
252 1172 2791
262 1170 2874
273 1167 2954
282 1165 3035
293 1162 3115
303 1158 3193
316 1154 3273
328 1149 3351
340 1144 3431
353 1140 3511
366 1132 3589
381 1126 3670
395 1118 3749
410 1110 3829
425 1100 3910
442 1090 3991
459 1080 4073
614 1120 4079
757 1167 4080
878 1216 4080
987 1265 4080
1088 1317 4080
1181 1368 4081
1269 1421 4081
1350 1472 4081
1427 1524 4081
1500 1576 4081
1569 1627 4082
1635 1677 4082
1695 1724 4082
1753 1772 4082
1806 1816 4082
1856 1858 4082
145 1300 58
70 1307 64
70 1307 142
76 1305 223
86 1306 303
101 1305 382
123 1305 462
155 1303 544
155 1303 633
152 1303 724
148 1303 817
152 1303 911
167 1305 1006
202 1303 1100
264 1299 1194
359 1289 1289
306 1295 1396
252 1299 1499
223 1303 1600
212 1304 1699
210 1304 1798
215 1304 1896
223 1303 1993
230 1301 2088
238 1300 2183
245 1299 2277
252 1299 2368
255 1298 2457
257 1297 2544
259 1295 2626
264 1294 2709
271 1293 2791
278 1291 2874
286 1289 2954
295 1286 3034
306 1283 3113
316 1279 3190
326 1276 3270
338 1271 3347
349 1267 3426
362 1262 3505
375 1255 3583
388 1249 3661
403 1242 3742
417 1235 3822
432 1226 3901
448 1217 3982
464 1207 4064
612 1235 4079
761 1277 4079
888 1319 4080
1002 1363 4080
1106 1408 4080
1201 1455 4080
1289 1502 4081
1373 1549 4081
1451 1597 4081
1525 1645 4081
1594 1692 4081
1658 1737 4082
1719 1782 4082
1777 1827 4082
1830 1868 4082
1880 1908 4082
170 1423 67
95 1427 73
80 1429 139
86 1429 223
95 1430 303
111 1429 382
129 1429 464
158 1427 546
182 1426 631
179 1426 723
176 1426 817
176 1426 913
179 1427 1009
193 1426 1103
228 1425 1200
289 1420 1295
381 1413 1391
361 1414 1496
299 1420 1601
264 1421 1700
245 1424 1800
240 1425 1897
243 1424 1993
248 1422 2087
257 1421 2182
264 1420 2275
273 1419 2366
280 1416 2454
284 1416 2543
289 1414 2626
291 1412 2709
291 1411 2790
297 1410 2872
303 1408 2951
312 1405 3030
320 1402 3109
330 1398 3186
340 1395 3265
349 1391 3342
361 1387 3421
372 1381 3497
384 1376 3576
397 1370 3654
410 1364 3733
425 1357 3813
438 1350 3892
454 1341 3972
470 1332 4053
605 1351 4079
765 1387 4079
898 1423 4079
1016 1461 4080
1124 1502 4080
1222 1543 4080
1312 1584 4080
1397 1628 4081
1476 1672 4081
1550 1715 4081
1619 1758 4081
1684 1801 4081
1745 1842 4082
1803 1884 4082
1855 1922 4082
1904 1959 4082
196 1543 80
120 1549 83
89 1550 136
98 1550 220
