mars3.3dl
#64pt 3DLUT created by 3D LUT Creator Pro (c) Oleg Sharonov
#Copyright Jens Tabel
#INPUTGAMMA sRGB
#IMAGEPROFILE sRGB
#OUTPUTGAMMA sRGB
0 17 33 49 65 82 98 114 130 147 163 179 195 212 228 244 260 277 293 309 325 341 358 374 390 406 423 439 455 471 488 504 520 536 553 569 585 601 618 634 650 666 682 699 715 731 747 764 780 796 812 829 845 861 877 894 910 926 942 959 975 991 1007 1023 
0 0 0
3 0 61
3 0 127
6 4 188
10 4 241
13 4 290
17 8 370
20 9 441
27 10 504
30 14 562
37 16 641
47 21 712
54 26 780
64 31 863
72 33 940
82 39 1012
92 44 1080
105 50 1161
116 56 1237
130 65 1322
144 72 1402
160 78 1477
173 85 1549
187 94 1627
206 102 1711
223 112 1794
241 122 1875
260 133 1966
279 143 2055
301 157 2151
323 171 2246
348 186 2346
373 203 2447
398 217 2540
423 234 2633
449 250 2726
473 268 2811
498 283 2896
523 299 2980
550 315 3068
575 331 3149
600 344 3229
626 359 3310
652 371 3390
676 384 3467
702 397 3545
726 406 3621
750 416 3698
774 425 3771
797 432 3847
820 438 3920
843 442 3992
865 445 4063
927 534 4077
1004 643 4069
1077 743 4063
1148 834 4058
1217 920 4054
1285 1004 4050
1350 1083 4047
1413 1158 4045
1473 1230 4043
1531 1298 4041
1584 1361 4040
3 105 3
6 105 67
9 104 140
7 106 208
12 109 291
13 105 358
15 105 439
16 100 504
20 97 581
25 98 674
27 93 749
32 92 838
37 88 923
41 85 1006
47 82 1102
51 76 1179
56 73 1268
64 69 1367
74 69 1445
90 76 1503
108 82 1559
124 88 1624
143 95 1686
163 105 1756
182 112 1825
204 123 1904
225 133 1983
247 144 2060
269 155 2146
292 168 2229
317 180 2321
343 197 2415
368 211 2502
394 227 2590
419 241 2673
445 257 2756
469 272 2839
496 289 2921
522 302 3003
548 319 3084
574 333 3164
601 348 3242
626 359 3319
652 373 3394
677 384 3471
703 397 3549
726 406 3624
751 417 3700
775 425 3776
798 432 3849
822 439 3924
844 442 3996
866 446 4067
931 540 4076
1007 648 4069
1081 747 4062
1152 840 4057
1222 926 4053
1289 1009 4050
1354 1088 4047
1417 1162 4045
1477 1234 4043
1534 1302 4041
1589 1366 4040
10 213 4
11 216 66
13 216 141
28 210 207
16 211 280
18 212 353
20 213 429
25 212 506
28 209 583
30 206 657
36 206 741
39 204 825
44 200 907
50 196 988
56 195 1078
61 192 1167
67 189 1253
76 186 1348
81 181 1439
90 179 1526
96 174 1621
104 169 1704
112 165 1805
121 162 1905
130 156 2002
141 153 2097
155 153 2191
186 165 2272
215 180 2350
244 191 2426
274 206 2504
304 220 2585
332 236 2661
360 250 2738
388 266 2817
415 280 2890
441 294 2964
468 309 3038
494 322 3112
520 335 3186
547 350 3259
573 361 3331
599 374 3402
625 385 3472
650 396 3543
676 406 3617
701 416 3688
725 425 3757
751 431 3829
775 438 3898
797 442 3968
820 447 4037
861 486 4082
941 597 4073
1016 697 4066
1091 791 4061
1163 879 4056
1231 962 4052
1300 1044 4049
1365 1120 4046
1427 1192 4044
1488 1264 4042
1545 1330 4041
1599 1392 4040
13 294 7
14 294 63
18 295 134
17 296 205
31 290 271
29 292 347
24 295 419
27 296 497
32 292 572
35 293 654
41 292 735
45 291 815
48 287 897
54 287 984
60 284 1063
67 285 1158
73 281 1243
83 281 1334
89 279 1426
96 277 1517
105 276 1615
115 275 1712
124 275 1808
134 273 1911
146 273 2011
159 274 2118
172 274 2223
184 272 2322
196 269 2424
211 267 2528
226 263 2625
242 258 2723
260 256 2810
296 270 2877
328 284 2941
362 299 3011
393 312 3077
422 327 3144
452 338 3211
480 351 3278
510 364 3345
537 375 3412
563 386 3478
591 396 3546
618 407 3614
643 416 3679
669 425 3746
695 433 3814
719 438 3883
744 444 3949
768 448 4016
791 452 4082
870 556 4077
949 656 4070
1026 749 4064
1100 837 4059
1173 921 4054
1243 1003 4051
1311 1080 4048
1377 1155 4045
1439 1225 4043
1499 1294 4042
1556 1359 4040
1611 1421 4039
20 377 11
16 381 61
25 380 130
22 378 201
24 380 273
41 375 340
48 372 412
34 377 490
33 378 566
39 377 644
45 375 723
52 373 803
56 372 888
59 373 974
66 372 1059
73 371 1146
80 373 1241
88 372 1336
98 374 1430
105 374 1524
115 375 1626
125 376 1726
136 380 1834
150 384 1939
160 384 2042
173 385 2140
187 389 2249
199 389 2345
215 389 2443
230 390 2543
245 389 2636
259 386 2726
273 384 2822
288 380 2912
301 373 2998
317 366 3089
328 357 3175
341 345 3261
376 354 3318
412 366 3379
446 378 3440
478 388 3500
510 398 3564
539 408 3624
568 417 3686
596 426 3750
625 433 3813
651 440 3875
678 445 3939
704 450 4002
729 453 4066
794 525 4081
880 627 4073
960 718 4067
1037 804 4061
1111 887 4057
1184 967 4053
1255 1044 4050
1322 1118 4047
1387 1189 4045
1450 1259 4043
1511 1326 4041
1568 1388 4040
1622 1449 4039
26 461 13
20 464 58
30 463 127
33 461 197
32 461 269
34 462 341
51 459 409
70 454 481
50 458 558
46 463 640
49 463 718
55 463 802
62 463 889
69 464 976
77 467 1072
81 468 1160
89 470 1256
97 473 1353
108 477 1457
116 479 1554
127 482 1657
138 487 1766
149 489 1865
163 493 1967
174 496 2073
187 497 2168
201 501 2272
214 502 2365
227 504 2460
243 506 2556
258 507 2647
272 506 2739
288 506 2827
301 503 2915
315 499 2999
330 495 3087
342 489 3171
355 482 3255
368 473 3338
380 461 3421
391 446 3504
401 430 3585
412 411 3665
451 420 3719
487 430 3775
521 436 3834
554 444 3891
585 448 3948
615 453 4008
644 458 4067
713 520 4084
803 613 4076
888 701 4069
970 786 4064
1048 865 4059
1123 943 4055
1196 1018 4051
1267 1092 4048
1335 1163 4046
1401 1232 4044
1464 1299 4042
1524 1363 4041
1582 1424 4040
1636 1482 4039
36 552 17
24 556 57
35 557 127
45 553 194
41 555 269
40 554 342
44 555 416
65 553 487
105 548 561
72 558 648
63 562 732
62 565 818
69 567 904
76 572 999
87 576 1095
98 579 1193
106 581 1291
111 583 1389
120 588 1492
128 592 1593
140 594 1694
151 599 1798
163 603 1900
174 605 1999
188 608 2094
199 611 2193
216 616 2292
226 615 2382
243 620 2479
255 620 2567
271 622 2660
285 622 2745
300 623 2835
313 623 2920
327 620 3002
340 617 3088
353 614 3170
366 608 3253
378 601 3334
390 592 3412
401 581 3493
410 569 3573
420 553 3656
430 536 3734
439 516 3814
445 492 3895
454 466 3974
480 458 4035
519 463 4090
620 543 4087
719 627 4078
811 707 4071
897 784 4066
980 860 4061
1060 935 4056
1135 1005 4053
1208 1076 4050
1280 1146 4047
1349 1214 4045
1416 1281 4043
1479 1345 4041
1539 1405 4040
1596 1464 4039
1650 1521 4038
50 659 26
29 664 58
41 664 131
54 665 202
57 662 273
56 664 351
54 664 425
61 668 505
85 668 582
137 662 659
108 670 750
89 679 842
85 682 929
89 686 1023
97 691 1123
108 694 1218
119 697 1320
130 701 1422
139 703 1523
148 706 1623
157 710 1725
165 714 1826
177 717 1924
189 719 2021
200 723 2118
214 726 2213
229 730 2309
242 733 2401
256 734 2490
268 736 2580
283 738 2666
297 740 2753
310 740 2840
325 740 2923
336 738 3004
351 738 3087
363 734 3168
375 730 3248
387 725 3329
397 718 3408
407 709 3488
419 699 3567
428 687 3645
436 672 3725
444 655 3803
451 635 3881
457 612 3959
464 587 4038
504 589 4090
620 662 4081
723 733 4073
820 805 4067
909 874 4062
993 942 4058
1073 1009 4054
1150 1076 4051
1225 1142 4048
1297 1207 4046
1365 1270 4044
1432 1333 4042
1496 1395 4041
1556 1453 4039
1613 1510 4039
1667 1564 4038
63 784 35
37 790 58
50 790 136
61 787 210
79 787 283
75 785 360
73 786 442
71 788 521
79 791 602
105 789 683
164 785 764
156 791 858
124 800 953
112 804 1047
113 809 1144
120 813 1242
131 815 1341
143 818 1441
154 821 1544
166 824 1646
178 828 1747
187 830 1845
196 832 1942
205 836 2039
216 839 2133
228 843 2230
242 846 2323
256 848 2412
269 852 2502
282 854 2589
293 855 2674
307 856 2758
320 858 2842
335 858 2924
346 857 3006
358 857 3088
372 855 3167
382 852 3246
393 847 3324
405 841 3403
416 834 3481
425 825 3559
434 815 3638
442 802 3714
448 787 3792
456 771 3871
462 750 3948
466 728 4024
498 721 4085
621 783 4076
729 844 4069
828 905 4064
919 966 4059
1005 1027 4055
1087 1089 4052
1167 1152 4049
1241 1212 4046
1315 1274 4044
1384 1333 4042
1451 1393 4041
1515 1450 4040
1575 1506 4039
1632 1560 4038
1686 1611 4037
80 908 44
45 914 58
59 913 141
71 915 217
86 911 292
98 911 370
94 909 450
91 912 534
92 913 618
103 913 701
132 913 785
195 910 870
210 912 964
166 919 1061
145 926 1160
142 932 1260
144 934 1357
155 937 1458
166 940 1558
181 942 1658
193 946 1760
208 949 1860
220 952 1958
229 954 2054
237 958 2150
243 960 2240
257 965 2333
268 965 2420
280 969 2509
293 972 2596
307 973 2678
318 975 2764
331 976 2846
343 976 2926
356 977 3006
368 977 3086
379 975 3166
390 972 3243
401 969 3321
410 964 3398
421 957 3474
429 950 3551
438 941 3629
446 930 3704
452 916 3781
459 901 3859
464 884 3936
467 864 4013
484 848 4081
617 901 4072
732 954 4065
835 1007 4060
930 1064 4056
1019 1119 4052
1104 1175 4049
1184 1231 4047
1260 1287 4045
1334 1344 4043
1403 1400 4041
1471 1455 4040
1535 1510 4039
1595 1562 4038
1653 1614 4038
1707 1662 4037
100 1034 54
57 1042 59
68 1041 141
81 1042 223
94 1039 299
115 1035 376
120 1035 458
115 1036 542
113 1038 628
114 1038 713
127 1039 801
160 1036 886
222 1034 976
266 1030 1067
217 1040 1169
187 1048 1271
175 1053 1371
174 1057 1470
181 1061 1571
193 1064 1671
207 1067 1770
222 1068 1868
236 1070 1964
247 1072 2062
258 1075 2156
269 1080 2250
277 1081 2339
285 1084 2426
295 1088 2515
307 1089 2598
319 1092 2684
329 1093 2765
342 1094 2845
354 1095 2925
364 1096 3007
376 1096 3084
387 1094 3161
397 1093 3239
408 1089 3315
418 1085 3391
426 1081 3468
435 1074 3544
443 1066 3620
449 1056 3695
456 1045 3772
462 1031 3847
466 1015 3923
469 997 4000
473 976 4075
614 1021 4069
734 1067 4062
842 1114 4057
941 1163 4053
1033 1212 4050
1119 1263 4047
1201 1314 4045
1279 1366 4043
1354 1418 4041
1425 1470 4040
1493 1522 4039
1557 1573 4038
1618 1622 4038
1675 1670 4037
1730 1717 4037
124 1161 68
77 1167 67
81 1170 145
91 1168 226
105 1165 304
126 1162 383
147 1160 463
145 1158 548
140 1161 635
134 1162 723
138 1163 811
155 1165 902
190 1161 989
252 1157 1079
324 1150 1169
269 1161 1275
233 1169 1377
215 1176 1479
208 1180 1578
213 1182 1677
221 1186 1777
234 1188 1875
248 1191 1972
261 1193 2066
274 1194 2159
287 1197 2251
300 1199 2341
310 1202 2430
317 1205 2517
324 1207 2601
331 1210 2684
344 1212 2766
354 1212 2844
363 1214 2924
376 1215 3002
385 1214 3079
396 1214 3156
406 1213 3232
415 1211 3309
424 1207 3384
432 1203 3460
440 1197 3534
447 1189 3610
454 1182 3685
460 1171 3760
465 1158 3836
468 1144 3911
472 1128 3987
473 1109 4061
605 1140 4066
733 1180 4059
848 1221 4054
951 1264 4051
1046 1308 4048
1136 1353 4045
1221 1401 4043
1300 1448 4041
1375 1495 4040
1448 1543 4039
1516 1591 4038
1580 1638 4038
1641 1684 4037
1699 1730 4037
1753 1773 4036
147 1285 82
103 1294 81
90 1295 143
104 1294 227
118 1292 307
137 1289 388
161 1284 468
175 1281 552
170 1284 640
165 1283 728
162 1286 818
166 1288 910
185 1288 1001
220 1284 1091
280 1279 1181
361 1271 1271
320 1281 1379
278 1291 1482
253 1296 1583
245 1302 1683
244 1303 1779
249 1307 1878
259 1309 1972
274 1311 2067
287 1313 2160
302 1316 2253
314 1317 2341
326 1319 2428
337 1322 2516
346 1325 2601
355 1327 2683
359 1328 2763
366 1330 2842
375 1332 2921
386 1332 2999
395 1332 3074
404 1333 3151
414 1331 3226
422 1329 3302
431 1327 3377
439 1323 3450
445 1318 3525
452 1312 3600
457 1305 3674
462 1296 3749
467 1285 3824
471 1272 3899
472 1257 3974
475 1239 4048
592 1259 4064
731 1293 4056
852 1329 4052
960 1366 4048
1061 1407 4045
1153 1447 4043
1239 1488 4041
1321 1531 4040
1398 1575 4039
1471 1618 4038
1541 1663 4037
1605 1707 4037
1667 1749 4036
1724 1791 4036
1778 1831 4036
174 1408 96
133 1416 96
102 1420 142
117 1418 228
132 1415 310
148 1413 392
170 1409 472
202 1403 554
200 1404 642
195 1406 732
189 1407 823
190 1408 914
196 1410 1008
214 1410 1101
251 1407 1192
309 1402 1284
387 1393 1374
374 1397 1478
327 1408 1583
297 1415 1683
281 1420 1782
276 1424 1880
280 1426 1974
287 1429 2067
299 1431 2160
313 1433 2250
325 1434 2339
338 1437 2427
352 1439 2512
362 1440 2596
373 1441 2677
382 1444 2759
388 1446 2838
393 1447 2916
397 1448 2992
406 1449 3069
415 1448 3143
422 1448 3219
430 1447 3293
438 1444 3367
445 1441 3441
451 1438 3516
458 1433 3590
463 1426 3663
468 1418 3738
471 1409 3811
474 1396 3885
475 1384 3960
476 1368 4034
576 1377 4061
726 1407 4054
854 1437 4049
968 1469 4046
1074 1505 4043
1169 1540 4041
1259 1578 4040
1342 1616 4039
1421 1655 4038
1496 1696 4037
1565 1736 4036
1631 1775 4036
1692 1815 4036
1750 1854 4036
1804 1892 4036
199 1531 110
162 1537 110
117 1542 141
129 1540 228
